azure-patterns/svg-files.svg

<svg xmlns="http://www.w3.org/2000/svg" viewBox="0 0 40 50">
                                
                            
  <path fill-rule="evenodd" clip-rule="evenodd" d="M1 48.084H28.582V10.193H1V48.084Z" fill="white"></path>
  <path fill-rule="evenodd" clip-rule="evenodd" d="M0 49.084H29.582V9.19299H0V49.084ZM2 47.084H27.583V11.193H2V47.084Z" fill="#0078D4"></path>
  <path fill-rule="evenodd" clip-rule="evenodd" d="M6.01514 43.905H33.5971V6.01404H6.01514V43.905Z" fill="white"></path>
  <path fill-rule="evenodd" clip-rule="evenodd" d="M7.01514 42.905H32.5971V7.01404H7.01514V42.905ZM5.01514 44.905H34.5971V5.01404H5.01514V44.905Z" fill="#0078D4"></path>
  <path fill-rule="evenodd" clip-rule="evenodd" d="M10.751 38.89H38.333V0.999023H10.751V38.89Z" fill="white"></path>
  <path fill-rule="evenodd" clip-rule="evenodd" d="M9.75098 39.891H39.333V0H9.75098V39.891ZM11.751 37.89H37.333V2H11.751V37.89Z" fill="#0078D4"></path>
  <path fill-rule="evenodd" clip-rule="evenodd" d="M16.0439 9.24304H33.8749V7.24304H16.0439V9.24304Z" fill="#0078D4"></path>
  <path fill-rule="evenodd" clip-rule="evenodd" d="M16.0439 13.757H33.8749V11.757H16.0439V13.757Z" fill="#0078D4"></path>
  <path fill-rule="evenodd" clip-rule="evenodd" d="M16.0439 18.27H33.8749V16.27H16.0439V18.27Z" fill="#0078D4"></path>
  <path fill-rule="evenodd" clip-rule="evenodd" d="M16.0439 22.7841H33.8749V20.7841H16.0439V22.7841Z" fill="#0078D4"></path>
  <path fill-rule="evenodd" clip-rule="evenodd" d="M16.0439 27.297H33.8749V25.297H16.0439V27.297Z" fill="#0078D4"></path>
  <path fill-rule="evenodd" clip-rule="evenodd" d="M16.0439 31.811H33.8749V29.811H16.0439V31.811Z" fill="#0078D4"></path>
</svg>

<svg xmlns="http://www.w3.org/2000/svg" viewBox="0 0 40 50"><path fill-rule="evenodd" clip-rule="evenodd" d="M1 48.084h27.582V10.193H1v37.891z" fill="#fff"/><path fill-rule="evenodd" clip-rule="evenodd" d="M0 49.084h29.582V9.193H0v39.891zm2-2h25.583V11.193H2v35.891z" fill="#0078D4"/><path fill-rule="evenodd" clip-rule="evenodd" d="M6.015 43.905h27.582V6.014H6.015v37.891z" fill="#fff"/><path fill-rule="evenodd" clip-rule="evenodd" d="M7.015 42.905h25.582V7.014H7.015v35.891zm-2 2h29.582V5.014H5.015v39.891z" fill="#0078D4"/><path fill-rule="evenodd" clip-rule="evenodd" d="M10.751 38.89h27.582V.999H10.751V38.89z" fill="#fff"/><path fill-rule="evenodd" clip-rule="evenodd" d="M9.751 39.891h29.582V0H9.751v39.891zm2-2.001h25.582V2H11.751v35.89z" fill="#0078D4"/><path fill-rule="evenodd" clip-rule="evenodd" d="M16.044 9.243h17.83v-2h-17.83v2zM16.044 13.757h17.83v-2h-17.83v2zM16.044 18.27h17.83v-2h-17.83v2zM16.044 22.784h17.83v-2h-17.83v2zM16.044 27.297h17.83v-2h-17.83v2zM16.044 31.811h17.83v-2h-17.83v2z" fill="#0078D4"/></svg>
